build/images/last-section/Vectorls-icon-1.svg

<svg width="56" height="79" viewBox="0 0 56 79" fill="none" xmlns="http://www.w3.org/2000/svg">
<path d="M50.0104 29.9932V31.4932H50.0251L50.0397 31.4929L50.0104 29.9932ZM53.9257 34.6519L55.3962 34.9482L55.3988 34.9346L53.9257 34.6519ZM46.0254 73.861L47.4923 74.1747L47.4941 74.166L47.4959 74.1572L46.0254 73.861ZM42.1101 76.9998L42.1259 75.4999L42.118 75.4998H42.1101V76.9998ZM13.5645 76.9998V75.4998H13.5573L13.5502 75.4998L13.5645 76.9998ZM9.64339 73.8377L8.17069 74.1226L8.1728 74.1335L8.17507 74.1443L9.64339 73.8377ZM2.05678 34.6228L0.579949 34.8854L0.581933 34.8966L0.584086 34.9077L2.05678 34.6228ZM5.97788 30.0165L5.95007 31.5162L5.96398 31.5165H5.97788V30.0165ZM42.745 30.4204C42.6208 29.6014 41.8561 29.0381 41.037 29.1624C40.218 29.2866 39.6547 30.0513 39.779 30.8704L42.745 30.4204ZM41.2968 31.5189L39.8006 31.4128L39.7968 31.4658V31.5189H41.2968ZM13.4134 31.5189H14.9134V31.4772L14.9111 31.4357L13.4134 31.5189ZM14.9413 30.8461C15.0714 30.028 14.5137 29.2592 13.6956 29.1291C12.8774 28.9989 12.1087 29.5567 11.9785 30.3748L14.9413 30.8461ZM5.53791 29.415C5.58849 30.2419 6.29981 30.8712 7.12669 30.8207C7.95357 30.7701 8.58289 30.0588 8.53231 29.2319L5.53791 29.415ZM5.60609 5.95992V4.45992C5.19237 4.45992 4.79701 4.6308 4.51354 4.93215C4.23006 5.23349 4.08363 5.63854 4.10889 6.0515L5.60609 5.95992ZM13.3786 5.95992L14.8785 5.97965C14.8837 5.57844 14.7281 5.19184 14.4462 4.90626C14.1644 4.62068 13.7798 4.45992 13.3786 4.45992V5.95992ZM11.5476 29.7448C11.5359 30.5732 12.1979 31.2542 13.0263 31.2659C13.8546 31.2776 14.5356 30.6156 14.5473 29.7873L11.5476 29.7448ZM19.0411 40.6966C19.0411 41.525 19.7127 42.1966 20.5411 42.1966C21.3696 42.1966 22.0411 41.525 22.0411 40.6966H19.0411ZM20.5411 11.8125H22.0411C22.0411 10.993 21.3835 10.3252 20.5641 10.3126L20.5411 11.8125ZM27.0171 43.7839C27.0272 44.6123 27.707 45.2756 28.5354 45.2654C29.3637 45.2553 30.027 44.5755 30.0168 43.7472L27.0171 43.7839ZM28.0058 2.08153L27.9904 0.581606C27.5921 0.585671 27.2118 0.748021 26.9332 1.03285C26.6547 1.31768 26.501 1.70159 26.5059 2.09992L28.0058 2.08153ZM35.9932 2H37.4932C37.4932 1.59952 37.333 1.21567 37.0484 0.933941C36.7638 0.652209 36.3783 0.495991 35.9779 0.500078L35.9932 2ZM34.4932 21.6831C34.4932 22.5116 35.1648 23.1831 35.9932 23.1831C36.8216 23.1831 37.4932 22.5116 37.4932 21.6831H34.4932ZM37.4932 26.8718C37.4932 26.0434 36.8216 25.3718 35.9932 25.3718C35.1648 25.3718 34.4932 26.0434 34.4932 26.8718H37.4932ZM34.4932 41.0344C34.4932 41.8628 35.1648 42.5344 35.9932 42.5344C36.8216 42.5344 37.4932 41.8628 37.4932 41.0344H34.4932ZM20.5411 18.7913C19.7127 18.7913 19.0411 19.4629 19.0411 20.2913C19.0411 21.1198 19.7127 21.7913 20.5411 21.7913V18.7913ZM28.0058 21.7913C28.8342 21.7913 29.5058 21.1198 29.5058 20.2913C29.5058 19.4629 28.8342 18.7913 28.0058 18.7913V21.7913ZM35.9932 6.48647C35.1648 6.48647 34.4932 7.15804 34.4932 7.98647C34.4932 8.8149 35.1648 9.48647 35.9932 9.48647V6.48647ZM43.5101 7.98647L45.0099 8.01211C45.0168 7.6099 44.8618 7.22178 44.5798 6.93491C44.2978 6.64805 43.9124 6.48647 43.5101 6.48647V7.98647ZM41.6386 29.2972C41.624 30.1255 42.2837 30.8087 43.112 30.8232C43.9403 30.8378 44.6236 30.178 44.6381 29.3497L41.6386 29.2972ZM46.1625 29.0066C45.9876 29.8164 46.5021 30.6146 47.3119 30.7896C48.1216 30.9646 48.9199 30.4501 49.0949 29.6403L46.1625 29.0066ZM50.9863 13.7866L52.4525 14.1034C52.5407 13.6953 52.4548 13.2689 52.2154 12.9267C51.9761 12.5846 51.6049 12.3577 51.1913 12.3007L50.9863 13.7866ZM40.8379 31.4932H50.0104V28.4932H40.8379V31.4932ZM50.0397 31.4929C50.398 31.4859 50.7535 31.5592 51.0801 31.7076L52.3212 28.9764C51.587 28.6427 50.7874 28.4777 49.9811 28.4934L50.0397 31.4929ZM51.0801 31.7076C51.4068 31.8561 51.6966 32.076 51.9281 32.3515L54.2248 30.4213C53.7058 29.8038 53.0555 29.3101 52.3212 28.9764L51.0801 31.7076ZM51.9281 32.3515C52.1597 32.627 52.3271 32.9512 52.4179 33.3004L55.3213 32.5453C55.1183 31.7645 54.7437 31.0388 54.2248 30.4213L51.9281 32.3515ZM52.4179 33.3004C52.5087 33.6496 52.5206 34.0148 52.4526 34.3692L55.3988 34.9346C55.5509 34.1423 55.5244 33.326 55.3213 32.5453L52.4179 33.3004ZM52.4553 34.3556L44.555 73.5647L47.4959 74.1572L55.3962 34.9482L52.4553 34.3556ZM44.5586 73.5473C44.4392 74.1054 44.1313 74.6043 43.6878 74.9598L45.5643 77.3005C46.5478 76.512 47.2286 75.4076 47.4923 74.1747L44.5586 73.5473ZM43.6878 74.9598C43.2444 75.3153 42.6926 75.5058 42.1259 75.4999L42.0943 78.4997C43.3548 78.5129 44.5806 78.0891 45.5643 77.3005L43.6878 74.9598ZM42.1101 75.4998H13.5645V78.4998H42.1101V75.4998ZM13.5502 75.4998C12.9806 75.5053 12.4262 75.3127 11.9815 74.954L10.0982 77.2893C11.0834 78.0838 12.3134 78.5118 13.5788 78.4997L13.5502 75.4998ZM11.9815 74.954C11.5367 74.5954 11.229 74.0926 11.1117 73.531L8.17507 74.1443C8.43385 75.3833 9.11314 76.4949 10.0982 77.2893L11.9815 74.954ZM11.1161 73.5528L3.52947 34.3379L0.584086 34.9077L8.17069 74.1226L11.1161 73.5528ZM3.53361 34.3602C3.47094 34.0077 3.48695 33.6458 3.58045 33.3004L0.684685 32.5165C0.475619 33.2887 0.439877 34.0977 0.579949 34.8854L3.53361 34.3602ZM3.58045 33.3004C3.67394 32.9551 3.84256 32.635 4.07392 32.3632L1.78951 30.4186C1.27101 31.0277 0.893754 31.7442 0.684685 32.5165L3.58045 33.3004ZM4.07392 32.3632C4.30528 32.0914 4.59356 31.8747 4.9179 31.7284L3.68405 28.9938C2.95498 29.3228 2.30802 29.8095 1.78951 30.4186L4.07392 32.3632ZM4.9179 31.7284C5.24223 31.582 5.59473 31.5096 5.95007 31.5162L6.00569 28.5167C5.20604 28.5019 4.41314 28.6649 3.68405 28.9938L4.9179 31.7284ZM5.97788 31.5165H13.9072V28.5165H5.97788V31.5165ZM37.6766 58.3241C37.6766 59.788 36.7675 61.3099 34.8901 62.5369C33.0261 63.7551 30.3622 64.5576 27.3435 64.5576V67.5576C30.8601 67.5576 34.1127 66.6289 36.5314 65.0481C38.9367 63.4761 40.6766 61.1313 40.6766 58.3241H37.6766ZM27.3435 64.5576C24.3249 64.5576 21.661 63.7551 19.7969 62.5369C17.9195 61.3099 17.0105 59.788 17.0105 58.3241H14.0105C14.0105 61.1313 15.7504 63.4761 18.1557 65.0481C20.5744 66.6289 23.827 67.5576 27.3435 67.5576V64.5576ZM17.0105 58.3241C17.0105 56.8602 17.9195 55.3383 19.7969 54.1113C21.661 52.8931 24.3249 52.0906 27.3435 52.0906V49.0906C23.827 49.0906 20.5744 50.0193 18.1557 51.6001C15.7504 53.172 14.0105 55.5169 14.0105 58.3241H17.0105ZM27.3435 52.0906C30.3622 52.0906 33.0261 52.8931 34.8901 54.1113C36.7675 55.3383 37.6766 56.8602 37.6766 58.3241H40.6766C40.6766 55.5169 38.9367 53.172 36.5314 51.6001C34.1127 50.0193 30.8601 49.0906 27.3435 49.0906V52.0906ZM39.779 30.8704C39.8062 31.0498 39.8134 31.2317 39.8006 31.4128L42.7931 31.625C42.8216 31.2229 42.8055 30.8189 42.745 30.4204L39.779 30.8704ZM39.7968 31.5189C39.7968 37.6593 34.3413 42.8304 27.3551 42.8304V45.8304C35.7513 45.8304 42.7968 39.5527 42.7968 31.5189H39.7968ZM27.3551 42.8304C20.3703 42.8304 14.9134 37.6431 14.9134 31.5189H11.9134C11.9134 39.534 18.9576 45.8304 27.3551 45.8304V42.8304ZM14.9111 31.4357C14.9002 31.2386 14.9103 31.0409 14.9413 30.8461L11.9785 30.3748C11.914 30.7805 11.893 31.192 11.9158 31.6021L14.9111 31.4357ZM8.53231 29.2319L7.10329 5.86835L4.10889 6.0515L5.53791 29.415L8.53231 29.2319ZM5.60609 7.45992H13.3786V4.45992H5.60609V7.45992ZM11.8787 5.94019L11.8032 11.6821L14.8029 11.7215L14.8785 5.97965L11.8787 5.94019ZM11.8032 11.6806L11.5476 29.7448L14.5473 29.7873L14.8029 11.723L11.8032 11.6806ZM20.5641 10.3126L13.326 10.202L13.2801 13.2016L20.5182 13.3123L20.5641 10.3126ZM30.0168 43.7472L29.5056 2.06313L26.5059 2.09992L27.0171 43.7839L30.0168 43.7472ZM28.0211 3.58145L36.0085 3.49992L35.9779 0.500078L27.9904 0.581606L28.0211 3.58145ZM34.4932 2V21.6831H37.4932V2H34.4932ZM34.4932 26.8718V41.0344H37.4932V26.8718H34.4932ZM20.5411 21.7913H28.0058V18.7913H20.5411V21.7913ZM35.9932 9.48647H43.5101V6.48647H35.9932V9.48647ZM42.0103 7.96084L41.929 12.7186L44.9286 12.7698L45.0099 8.01211L42.0103 7.96084ZM41.929 12.7179L41.6386 29.2972L44.6381 29.3497L44.9285 12.7705L41.929 12.7179ZM49.0949 29.6403L52.4525 14.1034L49.5202 13.4697L46.1625 29.0066L49.0949 29.6403ZM51.1913 12.3007L43.6337 11.2583L43.2238 14.2301L50.7814 15.2725L51.1913 12.3007ZM22.0411 40.6966V11.8125H19.0411V40.6966H22.0411Z" fill="#FF6B00"/>
</svg>

<svg width="56" height="79" fill="none" xmlns="http://www.w3.org/2000/svg"><path d="M50.01 29.993v1.5h.03l-.03-1.5zm3.916 4.659l1.47.296.003-.013-1.473-.283zm-7.9 39.209l1.466.314.002-.009.002-.009-1.47-.296zM42.11 77l.016-1.5h-.016V77zm-28.545 0v-1.5h-.015l.014 1.5zm-3.922-3.162l-1.472.285.002.01.002.011 1.468-.306zM2.057 34.623l-1.477.262.002.012.002.01 1.473-.284zm3.92-4.606l-.027 1.5h.028v-1.5zm36.768.403a1.5 1.5 0 1 0-2.966.45l2.966-.45zm-1.448 1.099l-1.496-.106-.004.053v.053h1.5zm-27.884 0h1.5v-.042l-.002-.041-1.498.083zm1.528-.673a1.5 1.5 0 0 0-2.963-.471l2.963.471zm-9.403-1.431a1.5 1.5 0 0 0 2.994-.183l-2.994.183zM5.606 5.96v-1.5A1.5 1.5 0 0 0 4.11 6.05l1.497-.091zm7.773 0l1.5.02a1.5 1.5 0 0 0-1.5-1.52v1.5zm-1.831 23.785a1.5 1.5 0 0 0 3 .042l-3-.042zm7.493 10.952a1.5 1.5 0 0 0 3 0h-3zm1.5-28.885h1.5a1.5 1.5 0 0 0-1.477-1.5l-.023 1.5zm6.476 31.972a1.5 1.5 0 1 0 3-.037l-3 .037zm.989-41.702l-.016-1.5A1.5 1.5 0 0 0 26.506 2.1l1.5-.018zM35.993 2h1.5A1.5 1.5 0 0 0 35.978.5l.015 1.5zm-1.5 19.683a1.5 1.5 0 1 0 3 0h-3zm3 5.189a1.5 1.5 0 0 0-3 0h3zm-3 14.162a1.5 1.5 0 0 0 3 0h-3zM20.541 18.791a1.5 1.5 0 0 0 0 3v-3zm7.465 3a1.5 1.5 0 1 0 0-3v3zm7.987-15.305a1.5 1.5 0 0 0 0 3v-3zm7.517 1.5l1.5.026a1.5 1.5 0 0 0-1.5-1.526v1.5zm-1.87 21.311a1.5 1.5 0 1 0 3 .053l-3-.053zm4.523-.29a1.5 1.5 0 0 0 2.933.633l-2.932-.633zm4.824-15.22l1.467.316a1.5 1.5 0 0 0-1.262-1.802l-.205 1.486zM40.838 31.493h9.172v-3h-9.172v3zm9.202 0a2.39 2.39 0 0 1 1.04.215l1.241-2.732a5.401 5.401 0 0 0-2.34-.483l.059 3zm1.04.215c.327.148.617.368.848.644l2.297-1.93a5.411 5.411 0 0 0-1.904-1.446l-1.24 2.732zm.848.644c.232.275.4.6.49.948l2.903-.755a5.422 5.422 0 0 0-1.096-2.124l-2.297 1.93zm.49.948c.09.35.103.715.035 1.07l2.946.565a5.427 5.427 0 0 0-.078-2.39l-2.903.755zm.037 1.056l-7.9 39.209 2.94.592 7.901-39.209-2.94-.592zM44.56 73.547a2.473 2.473 0 0 1-.871 1.413l1.876 2.34a5.473 5.473 0 0 0 1.928-3.125l-2.933-.628zm-.871 1.413a2.456 2.456 0 0 1-1.562.54l-.032 3a5.456 5.456 0 0 0 3.47-1.2l-1.876-2.34zm-1.578.54H13.565v3H42.11v-3zm-28.56 0a2.46 2.46 0 0 1-1.569-.546l-1.883 2.335a5.461 5.461 0 0 0 3.48 1.21l-.028-3zm-1.569-.546a2.479 2.479 0 0 1-.87-1.423l-2.936.613a5.48 5.48 0 0 0 1.923 3.145l1.883-2.335zm-.865-1.401L3.53 34.338l-2.945.57 7.587 39.215 2.945-.57zM3.534 34.36a2.429 2.429 0 0 1 .046-1.06l-2.895-.783a5.428 5.428 0 0 0-.105 2.368l2.954-.525zm.046-1.06c.094-.345.263-.665.494-.937L1.79 30.42a5.422 5.422 0 0 0-1.105 2.098l2.895.783zm.494-.937a2.41 2.41 0 0 1 .844-.635l-1.234-2.734a5.411 5.411 0 0 0-1.894 1.425l2.284 1.944zm.844-.635a2.4 2.4 0 0 1 1.032-.212l.056-3a5.403 5.403 0 0 0-2.322.478l1.234 2.734zm1.06-.212h7.93v-3h-7.93v3zm31.699 26.808c0 1.464-.91 2.986-2.787 4.213-1.864 1.218-4.528 2.02-7.547 2.02v3c3.517 0 6.77-.928 9.188-2.509 2.406-1.572 4.146-3.917 4.146-6.724h-3zm-10.334 6.234c-3.018 0-5.682-.803-7.546-2.021-1.878-1.227-2.787-2.749-2.787-4.213h-3c0 2.807 1.74 5.152 4.146 6.724 2.418 1.58 5.671 2.51 9.188 2.51v-3zm-10.332-6.234c0-1.464.909-2.986 2.786-4.213 1.864-1.218 4.528-2.02 7.546-2.02v-3c-3.516 0-6.769.928-9.187 2.51-2.406 1.571-4.145 3.916-4.145 6.723h3zm10.332-6.233c3.02 0 5.683.802 7.547 2.02 1.877 1.227 2.787 2.75 2.787 4.213h3c0-2.807-1.74-5.152-4.146-6.724-2.418-1.58-5.67-2.51-9.188-2.51v3zM39.78 30.87c.027.179.034.36.022.542l2.992.212a5.456 5.456 0 0 0-.048-1.205l-2.966.45zm.018.648c0 6.14-5.456 11.311-12.442 11.311v3c8.396 0 15.442-6.277 15.442-14.311h-3zM27.355 42.83c-6.985 0-12.442-5.187-12.442-11.311h-3c0 8.015 7.045 14.311 15.442 14.311v-3zM14.911 31.436c-.01-.197 0-.395.03-.59l-2.963-.471a5.775 5.775 0 0 0-.062 1.227l2.995-.166zm-6.379-2.204L7.103 5.868l-2.994.183 1.429 23.364 2.994-.183zM5.606 7.46h7.773v-3H5.606v3zm6.273-1.52l-.076 5.742 3 .04.075-5.742-3-.04zm-.076 5.74l-.255 18.065 3 .042.255-18.064-3-.042zm8.761-1.367l-7.238-.111-.046 3 7.238.11.046-3zm9.453 33.434l-.511-41.684-3 .037.511 41.684 3-.037zM28.02 3.581l7.987-.081-.03-3-7.988.082.031 3zM34.493 2v19.683h3V2h-3zm0 24.872v14.162h3V26.872h-3zm-13.952-5.08h7.465v-3H20.54v3zM35.993 9.485h7.517v-3h-7.517v3zM42.01 7.96l-.081 4.758 3 .05.08-4.757-2.999-.051zm-.081 4.757l-.29 16.58 3 .052.29-16.58-3-.052zm7.166 16.922l3.358-15.537-2.933-.633-3.358 15.537 2.933.633zM51.19 12.3l-7.557-1.042-.41 2.972 7.557 1.043.41-2.972zM22.04 40.697V11.812h-3v28.885h3z" fill="#FF6B00"/></svg>
